assets/img/braze_icons/line-chart-down-02.svg

<svg fill="none" height="24" viewBox="0 0 24 24" width="24" xmlns="http://www.w3.org/2000/svg"><g fill="#801ed7"><path d="m3.00001 2c.55228 0 1 .44772 1 1v16.4c0 .2965.00077.4588.0103.5754l.00114.0131.01319.0012c.11658.0095.27884.0103.57537.0103h16.39999c.5523 0 1 .4477 1 1s-.4477 1-1 1h-16.43184c-.25238 0-.49823.0001-.70638-.0169-.2286-.0187-.49833-.0628-.76976-.2011-.37632-.1917-.68228-.4977-.87403-.874-.1383-.2714-.18236-.5412-.20104-.7698-.01701-.2081-.01698-.4539-.01695-.7063l.00001-16.4319c0-.55228.44771-1 1-1z"/><path d="m20 12.5858v-1.5858c0-.5523.4477-1 1-1s1 .4477 1 1v4c0 .5523-.4477 1-1 1h-4c-.5523 0-1-.4477-1-1s.4477-1 1-1h1.5858l-3.5858-3.5858-1.7436 1.7436c-.0842.0843-.1847.1849-.2806.2663-.111.0942-.2796.2198-.5123.2954-.3012.0979-.6258.0979-.927 0-.2327-.0756-.4013-.2012-.5123-.2954-.0959-.0814-.1964-.1821-.2806-.2663l-4.45071-4.45069c-.39052-.39053-.39052-1.02369 0-1.41422.39053-.39052 1.02369-.39052 1.41422 0l4.29289 4.29291 1.7436-1.74359c.0842-.08426.1847-.18489.2806-.26626.111-.09429.2796-.21984.5123-.29543.3012-.09789.6258-.09789.927 0 .2327.07559.4013.20114.5123.29543.0959.08135.1964.18195.2806.26619z"/></g></svg>

<svg width="24" height="24" viewBox="0 0 24 24" fill="none" xmlns="http://www.w3.org/2000/svg">
<path d="M3.00001 2C3.55229 2 4.00001 2.44772 4.00001 3V19.4C4.00001 19.6965 4.00078 19.8588 4.01031 19.9754L4.01145 19.9885L4.02464 19.9897C4.14122 19.9992 4.30348 20 4.60001 20H21C21.5523 20 22 20.4477 22 21C22 21.5523 21.5523 22 21 22L4.56816 22C4.31578 22 4.06993 22.0001 3.86178 21.9831C3.63318 21.9644 3.36345 21.9203 3.09202 21.782C2.7157 21.5903 2.40974 21.2843 2.21799 20.908C2.07969 20.6366 2.03563 20.3668 2.01695 20.1382C1.99994 19.9301 1.99997 19.6843 2 19.4319L2.00001 3C2.00001 2.44772 2.44772 2 3.00001 2Z" fill="#801ED7"/>
<path d="M20 12.5858V11C20 10.4477 20.4477 10 21 10C21.5523 10 22 10.4477 22 11V15C22 15.5523 21.5523 16 21 16H17C16.4477 16 16 15.5523 16 15C16 14.4477 16.4477 14 17 14H18.5858L15 10.4142L13.2564 12.1578C13.1722 12.2421 13.0717 12.3427 12.9758 12.4241C12.8648 12.5183 12.6962 12.6439 12.4635 12.7195C12.1623 12.8174 11.8377 12.8174 11.5365 12.7195C11.3038 12.6439 11.1352 12.5183 11.0242 12.4241C10.9283 12.3427 10.8278 12.242 10.7436 12.1578L6.29289 7.70711C5.90237 7.31658 5.90237 6.68342 6.29289 6.29289C6.68342 5.90237 7.31658 5.90237 7.70711 6.29289L12 10.5858L13.7436 8.84221C13.8278 8.75795 13.9283 8.65732 14.0242 8.57595C14.1352 8.48166 14.3038 8.35611 14.5365 8.28052C14.8377 8.18263 15.1623 8.18263 15.4635 8.28052C15.6962 8.35611 15.8648 8.48166 15.9758 8.57595C16.0717 8.6573 16.1722 8.7579 16.2564 8.84214L20 12.5858Z" fill="#801ED7"/>
</svg>
